X: 43178
T: Wise Maid, The
R: reel
M: 4/4
K: Dmajor
|:d2 fd adfd|d2 fd efge|d2 fd adfd|geee efge:|
a2 fa dafa|gafa efge|a2 fa dafa|geee efge|
a2 fa dafa|Baca efge|a2 fa dafa|gefd efgf||
|:e2 ge Bege|e2 ge fagf|e2 ge Bege|fddd fagf:|
a2 fd dfed|dafd efge|a2 fd dfed|geee efge|
a2 fa eada|caBa efge|a2 fa dafa|gefd efge||

